images/icon/ig_f.svg

<svg height="32" viewBox="0 0 32 32" width="32" xmlns="http://www.w3.org/2000/svg"><g fill="none" fill-rule="evenodd"><path d="m0 0h31.267176v31.288889h-31.267176z"/><ellipse cx="15.633588" cy="15.644444" fill="#979797" rx="15.633588" ry="15.644444"/><path d="m19.9930565 8.53333333h-8.7189374c-1.51415702 0-2.74670758 1.2325703-2.74670758 2.74861507v8.7249921c0 1.5160448 1.23255056 2.7486151 2.74670758 2.7486151h8.7189374c1.514157 0 2.7467076-1.2325703 2.7467076-2.7486151v-8.7249921c0-1.51604477-1.2325506-2.74861507-2.7467076-2.74861507zm.7879967 1.63980347.3141959-.0016724v2.4107871l-2.4015934.0075259-.0083563-2.4107871zm-7.1755334 4.0112888c.4545814-.6305006 1.1932761-1.0435873 2.028068-1.0435873s1.5734866.4130867 2.0280679 1.0435873c.2966478.4114143.4738008.9148114.4738008 1.4600188 0 1.3797429-1.1222477 2.50277-2.5018687 2.50277-1.3787854 0-2.5010331-1.1230271-2.5010331-2.50277 0-.5452074.177153-1.0486045.4729651-1.4600188zm7.7496095 5.8225149c0 .7517508-.6108437 1.3630187-1.3620728 1.3630187h-8.7189374c-.7512291 0-1.36207281-.6112679-1.36207281-1.3630187v-5.8225149h2.12249381c-.183838.4515522-.2866202.9440786-.2866202 1.4600188 0 2.1440368 1.743119 3.8892025 3.8856679 3.8892025 2.1433845 0 3.8865035-1.7451657 3.8865035-3.8892025 0-.5159402-.1044534-1.0084666-.2866202-1.4600188h2.1216582z" fill="#000"/></g></svg>

<?xml version="1.0" encoding="UTF-8"?>
<svg width="32px" height="32px" viewBox="0 0 32 32" version="1.1" xmlns="http://www.w3.org/2000/svg" xmlns:xlink="http://www.w3.org/1999/xlink">
    <!-- Generator: Sketch 64 (93537) - https://sketch.com -->
    <title>instagram</title>
    <desc>Created with Sketch.</desc>
    <g id="Live-Game" stroke="none" stroke-width="1" fill="none" fill-rule="evenodd">
        <g id="footer" transform="translate(-1355.000000, -223.000000)">
            <g id="share_01" transform="translate(1255.000000, 223.000000)">
                <g id="instagram" transform="translate(100.000000, 0.000000)">
                    <rect id="Rectangle" x="0" y="0" width="31.2671756" height="31.2888889"></rect>
                    <ellipse id="Oval" fill="#979797" cx="15.6335878" cy="15.6444444" rx="15.6335878" ry="15.6444444"></ellipse>
                    <path d="M19.9930565,8.53333333 L11.2741191,8.53333333 C9.75996208,8.53333333 8.52741152,9.76590363 8.52741152,11.2819484 L8.52741152,20.0069405 C8.52741152,21.5229853 9.75996208,22.7555556 11.2741191,22.7555556 L19.9930565,22.7555556 C21.5072135,22.7555556 22.7397641,21.5229853 22.7397641,20.0069405 L22.7397641,11.2819484 C22.7397641,9.76590363 21.5072135,8.53333333 19.9930565,8.53333333 L19.9930565,8.53333333 Z M20.7810532,10.1731368 L21.0952491,10.1714644 L21.0952491,12.5822515 L18.6936557,12.5897774 L18.6852994,10.1789903 L20.7810532,10.1731368 L20.7810532,10.1731368 Z M13.6055198,14.1844256 C14.0601012,13.553925 14.7987959,13.1408383 15.6335878,13.1408383 C16.4683797,13.1408383 17.2070744,13.553925 17.6616557,14.1844256 C17.9583035,14.5958399 18.1354565,15.099237 18.1354565,15.6444444 C18.1354565,17.0241873 17.0132088,18.1472144 15.6335878,18.1472144 C14.2548024,18.1472144 13.1325547,17.0241873 13.1325547,15.6444444 C13.1325547,15.099237 13.3097077,14.5958399 13.6055198,14.1844256 L13.6055198,14.1844256 Z M21.3551293,20.0069405 C21.3551293,20.7586913 20.7442856,21.3699592 19.9930565,21.3699592 L11.2741191,21.3699592 C10.52289,21.3699592 9.91204629,20.7586913 9.91204629,20.0069405 L9.91204629,14.1844256 L12.0345401,14.1844256 C11.8507021,14.6359778 11.7479199,15.1285042 11.7479199,15.6444444 C11.7479199,17.7884812 13.4910389,19.5336469 15.6335878,19.5336469 C17.7769723,19.5336469 19.5200913,17.7884812 19.5200913,15.6444444 C19.5200913,15.1285042 19.4156379,14.6359778 19.2334711,14.1844256 L21.3551293,14.1844256 L21.3551293,20.0069405 L21.3551293,20.0069405 Z" id="Shape" fill="#000000"></path>
                </g>
            </g>
        </g>
    </g>
</svg>
